static/images/pieces/green/bC.svg

<svg height="128" viewBox="0 0 45 45" width="128" xmlns="http://www.w3.org/2000/svg"><path d="m22 10c10.5 1 16.5 8 16 29h-13c-12-9 0-6.5-2-21" stroke="#000" stroke-linecap="round" stroke-linejoin="round" stroke-width="2" transform="matrix(.75 0 0 .75 2 -1)"/><path d="m24.55 10.4-.45 1.45.5.15c3.15 1 5.65 2.49 7.9 6.75s3.25 10.31 2.75 20.25l-.05.5h2.25l.05-.5c.5-10.06-.88-16.85-3.25-21.34s-5.79-6.64-9.19-7.16z" fill="#fff" transform="matrix(.75 0 0 .75 2 -1)"/><g stroke="#000" stroke-linejoin="round" stroke-width="1.5" transform="translate(1 3)"><path d="m11 19v-5h4v2h5v-2h5v2h5v-2h4v5l-3 3v7.5l2 2.5v4h-21v-4l2-2.5v-7.5z"/><path d="m9 39h27v-3h-27z"/></g><g fill="none" stroke="#fff" stroke-linecap="round"><path d="m12 22h23" stroke-width="1.2"/><path d="m15 25h17" stroke-width=".8"/><path d="m15 32.5h17" stroke-width=".8"/><g stroke-width="1.2"><path d="m13 35h21"/><path d="m13 38.5h21"/></g></g><g stroke-linejoin="round" stroke-width="2" transform="matrix(.75 0 0 .75 2 -1)"><path d="m24 18c.38 2.91-5.55 7.37-8 9-3 2-2.82 4.34-5 4-1.042-.94 1.41-3.04 0-3-1 0 .19 1.23-1 2-1 0-4.003 1-4-4 0-2 6-12 6-12s1.89-1.9 2-3.5c-.73-.994-.5-2-.5-3 1-1 3 2.5 3 2.5h2s.78-1.992 2.5-3c1 0 1 3 1 3" stroke="#000" stroke-linecap="round"/><g fill="#fff" stroke="#fff"><path d="m9.5 25.5a.5.5 0 1 1 -1 0 .5.5 0 1 1 1 0z"/><path d="m15.25 14.2a.5 1.5 30 1 1 -1.5 2.6.5 1.5 30 1 1 1.5-2.6z"/></g></g></svg>

<?xml version="1.0" encoding="UTF-8" standalone="no"?>
<!--
	Tábornok (fekete)
	Készült: black-rook.svg és black-knight.svg felhasználásával
	Felhasználási feltételek: Nevezd meg! - Így add tovább! (Creative Commons)
	Uray M. János
	2013-2017
-->
<!DOCTYPE svg PUBLIC "-//W3C//DTD SVG 1.1//EN" "http://www.w3.org/Graphics/SVG/1.1/DTD/svg11.dtd">
<svg xmlns="http://www.w3.org/2000/svg" version="1.1" width="128" height="128" viewBox="0 0 45 45">
	<!-- huszár: test -->
	<g transform="translate(+2, -1) scale(0.75)" fill="#000" stroke="#000" stroke-width="2" stroke-linecap="round" stroke-linejoin="round">
		<path d="M 22,10 C 32.5,11 38.5,18 38,39 L 25,39 C 13,30 25,32.5 23,18"/>
	</g>
	<!-- huszár: hát -->
	<g transform="translate(+2, -1) scale(0.75)" fill="#FFF" stroke="#FFF" stroke-width="2" stroke-linejoin="round">
		<path stroke="none" d="M 24.55,10.4 L 24.1,11.85 L 24.6,12 C 27.75,13 30.25,14.49 32.5,18.75 C 34.75,23.01 35.75,29.06 35.25,39 L 35.2,39.5 L 37.45,39.5 L 37.5,39 C 38,28.94 36.62,22.15 34.25,17.66 C 31.88,13.17 28.46,11.02 25.06,10.5 L 24.55,10.4 Z"/>
	</g>
	<!-- bástya: alap -->
	<g transform="translate(+1, +3)" fill="#000" stroke="#000" stroke-width="1.5" stroke-linejoin="round">
		<!-- test -->
		<path d="
			M 11,19 L 11,14 L 15,14 L 15,16 L 20,16 L 20,14 L 25,14 L 25,16 L 30,16 L 30,14 L 34,14 L 34,19
			L 31,22 L 31,29.5 L 33,32 L 33,36 L 12,36 L 12,32 L 14,29.5 L 14,22 Z
		"/>
		<!-- talp -->
		<path d="M 9,39 L 36,39 L 36,36 L 9,36 L 9,39 z"/>
	</g>
	<!-- bástya: vonalak -->
	<g transform="translate(+1, +3)" fill="none" stroke="#FFF" stroke-linecap="round">
		<line stroke-width="1.2" x1="11" y1="19.0" x2="34" y2="19.0"/>
		<line stroke-width="0.8" x1="14" y1="22.0" x2="31" y2="22.0"/>
		<line stroke-width="0.8" x1="14" y1="29.5" x2="31" y2="29.5"/>
		<line stroke-width="1.2" x1="12" y1="32.0" x2="33" y2="32.0"/>
		<line stroke-width="1.2" x1="12" y1="35.5" x2="33" y2="35.5"/>
	</g>
	<!-- huszár: fej -->
	<g transform="translate(+2, -1) scale(0.75)" fill="#000" stroke="#000" stroke-width="2" stroke-linecap="round" stroke-linejoin="round">
		<path d="M 24,18 C 24.38,20.91 18.45,25.37 16,27 C 13,29 13.18,31.34 11,31 C 9.958,30.06 12.41,27.96 11,28 C 10,28 11.19,29.23 10,30 C 9,30 5.997,31 6,26 C 6,24 12,14 12,14 C 12,14 13.89,12.1 14,10.5 C 13.27,9.506 13.5,8.5 13.5,7.5 C 14.5,6.5 16.5,10 16.5,10 L 18.5,10 C 18.5,10 19.28,8.008 21,7 C 22,7 22,10 22,10"/>
	</g>
	<!-- huszár: vonalak -->
	<g transform="translate(+2, -1) scale(0.75)" fill="#FFF" stroke="#FFF" stroke-width="2" stroke-linejoin="round">
		<!-- orr -->
		<path d="M 9.5 25.5 A 0.5,0.5,0 1,1 8.5,25.5 A 0.5,0.5,0 1,1 9.5,25.5 Z"/>
		<!-- szem -->
		<path d="M 15.25 14.2 A 0.5,1.5,30 1,1 13.75,16.8 A 0.5,1.5,30 1,1 15.25,14.2 Z"/>
	</g>
</svg>
